X:1
T:Esik eső csendesen
C:Hungarian song
Z:Public Domain
L:1/8
M:4/4
K:C
V:1 treble 
%%MIDI program 0
V:1
"C" GE"G"FD"C" EC"G"D z |"C" GE"G"FD"C" EC"G"DF |"C" E2"G" D2"C" C2 z2!fine! | %3
w: Es- ik e- ső csen- de- sen,|le- pe- reg az e- re- szen, az|e- re- szen.|
"G" dB"D"cA"G" BG"D"A z |"G" dB"D"cA"G" BG"D"Ac |"G" B2"D" A2"G" G2 z2 |"F" A^GAB dcBA | %7
w: E- sik e- ső csen- de- sen,|le- pe- reg az e- re- szen, az|e- re- szen.|Sár lesz ab- ból, tu- dom én azt,|
"G" GABc"C" GE"G"FD!D.C.! |] %8
w: vár a ba- bám, ér- zem én azt,|

